X:151
T: WENN FROMME KINDLEIN SCHLAFEN GEHN
N: F0282
O: Europa, Mitteleuropa, Deutschland
R: Jugend - Lied, religioes
M: 2/4
L: 1/16
K: F
A2 | c2A2G2D2 | F3EE2
C2 | D2E2F2E2 | F2G2A2z2 |
c2BAG4 | c2BAG4 |
F2EFA2GD | G3FF2

@@@ Tune index: 5582
